icons/1_Primary/Notesnook.svg

<svg width="1024" height="1024" viewBox="0 0 1024 1024" fill="none" xmlns="http://www.w3.org/2000/svg">
<g clip-path="url(#clip0_2_2976)">
<path d="M512 1024C794.77 1024 1024 794.77 1024 512C1024 229.23 794.77 0 512 0C229.23 0 0 229.23 0 512C0 794.77 229.23 1024 512 1024Z" fill="#A0A5AF"/>
<path d="M378.67 481.29L435.24 568.56V463.52L469.18 452.21V599.27L425.54 613.82L369 526.55V631.6L335 641.29V494.22L378.67 481.29ZM501.49 636.44L750.38 704.32L522.51 775.43L272 707.55L501.49 636.44ZM501.49 248.56V626.08L504.12 626.8L750.42 694L752 295.44L501.49 248.56ZM532 543.08C531.969 542.633 532.049 542.185 532.233 541.777C532.417 541.368 532.7 541.012 533.055 540.74C533.411 540.467 533.829 540.287 534.271 540.216C534.713 540.144 535.167 540.183 535.59 540.33L663 574.45C664.009 574.763 664.896 575.382 665.538 576.22C666.181 577.058 666.549 578.075 666.59 579.13V592.06C666.621 592.507 666.541 592.955 666.357 593.363C666.173 593.772 665.89 594.128 665.535 594.401C665.179 594.673 664.761 594.853 664.319 594.924C663.877 594.996 663.423 594.957 663 594.81L535.6 560.69C534.588 560.378 533.698 559.759 533.053 558.919C532.408 558.078 532.04 557.058 532 556V543.08ZM698.66 638.08C698.66 639.7 697.04 641.31 695.43 639.7L535.43 597.7L532.2 592.85V581.5C532.2 578.27 533.82 578.27 535.43 578.27L695.43 620.27L698.66 625.12V638.08ZM698.66 562.08L695.43 565.31L535.43 521.67C533.81 521.67 532.2 520.05 532.2 516.82V505.54L535.43 502.31L695.43 545.95L698.66 549.18V562.08Z" fill="white"/>
</g>
<defs>
<clipPath id="clip0_2_2976">
<rect width="1024" height="1024" fill="white"/>
</clipPath>
</defs>
</svg>

<svg xmlns="http://www.w3.org/2000/svg" width="1024" height="1024" fill="none">
   <g clip-path="url(#a)">
      <path fill="#A0A5AF" d="M512 1024c282.77 0 512-229.23 512-512S794.77 0 512 0 0 229.23 0 512s229.23 512 512 512Z"/>
      <path fill="#fff" d="m378.67 481.29 56.57 87.27V463.52l33.94-11.31v147.06l-43.64 14.55L369 526.55V631.6l-34 9.69V494.22l43.67-12.93Zm122.82 155.15 248.89 67.88-227.87 71.11L272 707.55l229.49-71.11Zm0-387.88v377.52l2.63.72 246.3 67.2L752 295.44l-250.51-46.88ZM532 543.08a2.714 2.714 0 0 1 1.055-2.34 2.703 2.703 0 0 1 2.535-.41L663 574.45a5.108 5.108 0 0 1 3.59 4.68v12.93a2.714 2.714 0 0 1-1.055 2.341 2.713 2.713 0 0 1-2.535.409l-127.4-34.12A5.11 5.11 0 0 1 532 556v-12.92Zm166.66 95c0 1.62-1.62 3.23-3.23 1.62l-160-42-3.23-4.85V581.5c0-3.23 1.62-3.23 3.23-3.23l160 42 3.23 4.85v12.96Zm0-76-3.23 3.23-160-43.64c-1.62 0-3.23-1.62-3.23-4.85v-11.28l3.23-3.23 160 43.64 3.23 3.23v12.9Z"/>
   </g>
   <defs>
      <clipPath id="a">
         <path fill="#fff" d="M0 0h1024v1024H0z"/>
      </clipPath>
   </defs>
</svg>
